icons/mobile/24/svg/labs-24.svg

<svg width="24" height="24" viewBox="0 0 24 24" fill="none" xmlns="http://www.w3.org/2000/svg">
<path fill-rule="evenodd" clip-rule="evenodd" d="M7.66532 3.52281C10.4932 2.82685 13.4974 2.82493 16.3333 3.52281C16.8033 3.63781 17.0899 4.11338 16.9749 4.58238C16.8598 5.05225 16.3832 5.34199 15.9153 5.22301C15.8589 5.20915 15.802 5.19719 15.7454 5.18395V9.71715L19.9807 14.3744C20.9986 15.4934 21.2735 17.0613 20.6995 18.4632C20.1305 19.8531 18.8477 20.7689 17.3528 20.8519C15.5878 20.9499 13.7928 20.9994 12.0188 20.9994L12.0227 21.0004C10.2298 21.0004 8.41889 20.949 6.63895 20.85C5.14899 20.766 3.86817 19.855 3.29715 18.4711C2.72117 17.0751 2.9875 15.512 3.99442 14.391L8.24833 9.65856V5.18492C8.19349 5.1978 8.13799 5.20956 8.08329 5.22301C8.01341 5.24094 7.9422 5.2484 7.87333 5.2484C7.48057 5.24822 7.12375 4.98111 7.02469 4.58238C6.90972 4.11349 7.1955 3.63895 7.66532 3.52281ZM13.9954 4.87242C12.6691 4.71107 11.3236 4.71079 9.99833 4.87242V9.99254C9.99822 10.2084 9.91862 10.4166 9.77372 10.5775L5.79911 15.0004H18.1848L14.2239 10.6439C14.0779 10.4829 13.9954 10.273 13.9954 10.055V4.87242Z" fill="black"/>
</svg>

<!-- This Source Code Form is subject to the terms of the Mozilla Public
   - License, v. 2.0. If a copy of the MPL was not distributed with this
   - file, You can obtain one at http://mozilla.org/MPL/2.0/. -->
<svg xmlns="http://www.w3.org/2000/svg" width="24" height="24" fill="none" viewBox="0 0 24 24">
    <path fill="#000" fill-rule="evenodd" d="M7.665 3.523a18.2 18.2 0 0 1 8.668 0 .876.876 0 0 1-.418 1.7l-.17-.039v4.533l4.236 4.657a3.86 3.86 0 0 1 .718 4.09 3.82 3.82 0 0 1-3.346 2.388c-1.765.098-3.56.147-5.334.147l.004.001c-1.793 0-3.604-.051-5.384-.15a3.82 3.82 0 0 1-3.342-2.379 3.86 3.86 0 0 1 .697-4.08l4.254-4.732V5.185l-.165.038a.877.877 0 0 1-.418-1.7m6.33 1.35a16.6 16.6 0 0 0-3.997 0v5.12a.88.88 0 0 1-.224.585L5.799 15h12.386l-3.961-4.356a.88.88 0 0 1-.229-.589z" clip-rule="evenodd" />
</svg>
